X: 23698
T: Liscannor
R: hornpipe
M: 4/4
K: Gmajor
dB|"G"G2FA GABd|"G"g2fa gdBG|"D"FGAB "C"cdef|"G"gbag "D7"fdcA|
"G"G2FA GABd|"G"g2fa gdBG|"Am"Adag "D7"fdcA|"G"G2 "D"FA "G"G2:|
Bc|"G"dg~g2 dBGB|"Am7"ceag "D7"fdcA|"G"BGBd gdBG|"D"(3ABA "C"(3GFE "D"D2Bc|
"G"dg~g2 dBGB|"Am7"ceag "D7"fdcA|"G"BdGB "D"ADFA|"G"G2 "D"FA "G"G2:|

